libs/icons/src/svg/send-message.svg

<svg width="16" height="16" viewBox="0 0 16 16" fill="none" xmlns="http://www.w3.org/2000/svg">
<path d="M14.6608 1.96001C14.6542 1.90001 14.6475 1.84668 14.6275 1.78668C14.6208 1.76668 14.6142 1.74668 14.6008 1.72001C14.5675 1.64668 14.5275 1.58001 14.4675 1.52668C14.4075 1.46668 14.3408 1.42668 14.2675 1.39334C14.2475 1.38668 14.2275 1.38001 14.2075 1.37334C14.1475 1.35334 14.0942 1.34001 14.0342 1.34001C14.0208 1.33334 14.0008 1.33334 13.9875 1.33334C13.9142 1.33334 13.8408 1.34668 13.7742 1.37334L1.1075 6.04001C0.854167 6.12668 0.680833 6.36001 0.6675 6.62668C0.654167 6.89334 0.794167 7.14001 1.03417 7.26001L6.1675 9.82668L8.73417 14.96C8.85417 15.1867 9.08083 15.3333 9.33417 15.3333C9.3475 15.3333 9.36083 15.3333 9.37417 15.3333C9.64083 15.32 9.87417 15.1467 9.96083 14.9L14.6275 2.23334C14.6542 2.16668 14.6608 2.09334 14.6675 2.02001C14.6675 1.99334 14.6608 1.97334 14.6608 1.96001ZM11.3808 3.67334L6.53417 8.52001L3.0075 6.75334L11.3808 3.67334ZM9.24083 12.9867L7.48083 9.46001L12.3275 4.61334L9.24083 12.9867Z" fill="#202327"/>
</svg>

<svg xmlns="http://www.w3.org/2000/svg" viewBox="0 0 16 16" class="sageicon"><path d="M14.66 1.96a.791.791 0 0 0-.033-.173c-.006-.02-.013-.04-.026-.067a.558.558 0 0 0-.134-.193.657.657 0 0 0-.433-.187c-.013-.007-.033-.007-.046-.007a.577.577 0 0 0-.214.04L1.108 6.04a.665.665 0 0 0-.073 1.22l5.133 2.567 2.566 5.133c.12.227.347.373.6.373h.04a.657.657 0 0 0 .587-.433l4.666-12.667c.027-.066.034-.14.04-.213 0-.027-.006-.047-.006-.06Zm-3.28 1.713L6.535 8.52 3.008 6.753l8.373-3.08Zm-2.14 9.314L7.48 9.46l4.848-4.847-3.087 8.374Z"/></svg>
